svg/lock_smart.svg

<svg xmlns="http://www.w3.org/2000/svg" viewBox="0 0 24 24"><path d="M12 2a6 6 0 0 0-6 6v8a6 6 0 0 0 6 6 6 6 0 0 0 6-6V8a6 6 0 0 0-6-6M8 6h2v2H8zm3 0h2v2h-2zm3 0h2v2h-2zM8 9h2v2H8zm3 0h2v2h-2zm3 0h2v2h-2zm-6 3h2v2H8zm3 0h2v2h-2zm3 0h2v2h-2zm-2 4a2 2 0 0 1 2 2 2 2 0 0 1-2 2 2 2 0 0 1-2-2 2 2 0 0 1 2-2"/></svg>

<?xml version="1.0" encoding="UTF-8"?><!DOCTYPE svg PUBLIC "-//W3C//DTD SVG 1.1//EN" "http://www.w3.org/Graphics/SVG/1.1/DTD/svg11.dtd"><svg xmlns="http://www.w3.org/2000/svg" xmlns:xlink="http://www.w3.org/1999/xlink" version="1.1" id="mdi-lock-smart" width="24" height="24" viewBox="0 0 24 24"><path d="M12,2A6,6 0 0,0 6,8V16A6,6 0 0,0 12,22A6,6 0 0,0 18,16V8A6,6 0 0,0 12,2M8,6H10V8H8V6M11,6H13V8H11V6M14,6H16V8H14V6M8,9H10V11H8V9M11,9H13V11H11V9M14,9H16V11H14V9M8,12H10V14H8V12M11,12H13V14H11V12M14,12H16V14H14V12M12,16A2,2 0 0,1 14,18A2,2 0 0,1 12,20A2,2 0 0,1 10,18A2,2 0 0,1 12,16Z" /></svg>
